X: 8001
T: Connaughtman's Rambles, The
R: jig
M: 6/8
K: Dmajor
FAA dAA|BAB dAG|FAA def|edB BAG|
FAA dAA|BAB def|gfe dfe|1 dBA BAG:|2 dBA B2 g||
faa faa|~f3 d2e|faa faa|fed e2 g|
faa faa|~f3 def|gfe dfe|1 dBA B2 g:|2 dBA BAG||

